symbolic/32x32/apps/org.gnode.NixView.svg

<svg xmlns="http://www.w3.org/2000/svg" width="32" height="32" version="1">
 <path style="opacity:0.2" d="M 18.027505,3.0000008 C 24.592461,3.000001 30,8.4146994 30,14.988347 c 0,6.573649 -5.407539,11.988348 -11.972495,11.988348 -1.251393,2.58e-4 -2.479251,-0.213896 -3.657613,-0.593174 l -2.897639,2.899526 C 10.424085,30.376172 8.756127,31.070686 7.259275,30.994273 5.762424,30.917853 4.534225,30.263673 3.63479,29.363047 2.735354,28.46242 2.082031,27.232596 2.005719,25.733762 c -0.07631,-1.498834 0.617285,-3.169 1.708965,-4.218556 l -0.05845,0.05659 2.971688,-2.977575 C 6.260712,17.43386 6.056525,16.224551 6.055016,14.994206 v -0.0058 c 0,-6.5736475 5.407538,-11.9883459 11.972494,-11.9883461 z"/>
 <path style="fill:#2d4b9a" d="M 18.027505,2.0000004 C 24.592461,2.0000006 30,7.414699 30,13.988347 c 0,6.573649 -5.407539,11.988348 -11.972495,11.988348 -1.251393,2.58e-4 -2.479251,-0.213896 -3.657613,-0.593174 l -2.897639,2.899526 C 10.424085,29.376172 8.756127,30.070686 7.259275,29.994273 5.762424,29.917853 4.534225,29.263673 3.63479,28.363047 2.735354,27.46242 2.082031,26.232596 2.005719,24.733762 c -0.07631,-1.498834 0.617285,-3.169 1.708965,-4.218556 l -0.05845,0.05659 2.971688,-2.977575 C 6.260712,16.43386 6.056525,15.224551 6.055016,13.994206 v -0.0058 c 0,-6.5736479 5.407538,-11.9883463 11.972494,-11.9883465 z"/>
 <path style="opacity:0.2" d="M 14.658084,20.425885 8.545138,26.538831 C 7.131374,28.011284 4.951591,25.831501 6.424044,24.417737 l 6.205825,-6.205825 C 15,19 14,19 14.658084,20.425885 Z"/>
 <path style="fill:#eb8345" d="M 14.658084,19.425885 8.545138,25.538831 C 7.131374,27.011284 4.951591,24.831501 6.424044,23.417737 l 6.205825,-6.205825 C 15,18 14,18 14.658084,19.425885 Z"/>
 <path style="opacity:0.2" d="M 18,7.0000004 A 8.0000002,8.0000002 0 0 1 26,15 8.0000002,8.0000002 0 0 1 18,23 8.0000002,8.0000002 0 0 1 10,15 8.0000002,8.0000002 0 0 1 18,7.0000004 Z M 18,10 a 4.9999996,4.9999996 0 0 0 -5,5 4.9999996,4.9999996 0 0 0 5,5 4.9999996,4.9999996 0 0 0 5,-5 4.9999996,4.9999996 0 0 0 -5,-5 z"/>
 <path style="fill:#ffffff" d="m 18,6 a 8.0000002,8.0000002 0 0 1 8,8 8.0000002,8.0000002 0 0 1 -8,8 8.0000002,8.0000002 0 0 1 -8,-8 8.0000002,8.0000002 0 0 1 8,-8 z m 0,3 a 4.9999996,4.9999996 0 0 0 -5,5 4.9999996,4.9999996 0 0 0 5,5 4.9999996,4.9999996 0 0 0 5,-5 4.9999996,4.9999996 0 0 0 -5,-5 z"/>
 <path style="opacity:0.1;fill:#ffffff" d="M 18.027344,2 C 24.5923,2.0000002 30,7.4146332 30,13.988281 c 0,0.168551 -0.01835,0.333045 -0.02539,0.5 C 29.707139,8.1438184 24.423972,3.0000002 18.027344,3 c -6.413058,2e-7 -11.706994,5.1701775 -11.949219,11.537109 -0.009,-0.180928 -0.02321,-0.36103 -0.02344,-0.542968 v -0.0059 C 6.054688,7.4146333 11.462388,2.0000002 18.027344,2 Z M 6.410156,17.8125 c 0.06506,0.262367 0.135201,0.52341 0.216797,0.78125 l -2.970703,2.978516 0.05859,-0.05664 c -0.917279,0.881885 -1.54704,2.201832 -1.681641,3.490234 -0.0091,-0.09061 -0.02263,-0.178797 -0.02734,-0.271484 -0.07631,-1.498834 0.617305,-3.169194 1.708985,-4.21875 l -0.05859,0.05664 z"/>
</svg>

<svg xmlns="http://www.w3.org/2000/svg" width="32" height="32" version="1"><path style="opacity:.2" d="M18.028 3C24.592 3 30 8.415 30 14.988c0 6.574-5.408 11.989-11.972 11.989-1.252 0-2.48-.214-3.658-.593l-2.898 2.899c-1.048 1.093-2.716 1.788-4.213 1.711-1.497-.076-2.725-.73-3.624-1.631-.9-.9-1.553-2.13-1.63-3.63-.076-1.498.618-3.168 1.71-4.218l-.059.057 2.972-2.978a11.972 11.972 0 0 1-.573-3.6v-.006C6.055 8.415 11.463 3 18.028 3z"/><path style="fill:#2d4b9a" d="M18.028 2C24.592 2 30 7.415 30 13.988c0 6.574-5.408 11.989-11.972 11.989-1.252 0-2.48-.214-3.658-.593l-2.898 2.899c-1.048 1.093-2.716 1.788-4.213 1.711-1.497-.076-2.725-.73-3.624-1.631-.9-.9-1.553-2.13-1.63-3.63-.076-1.498.618-3.168 1.71-4.218l-.059.057 2.972-2.978a11.972 11.972 0 0 1-.573-3.6v-.006C6.055 7.415 11.463 2 18.028 2z"/><path style="opacity:.2" d="m14.658 20.426-6.113 6.113c-1.414 1.472-3.593-.707-2.121-2.121l6.206-6.206C15 19 14 19 14.658 20.426z"/><path style="fill:#eb8345" d="m14.658 19.426-6.113 6.113c-1.414 1.472-3.593-.707-2.121-2.121l6.206-6.206C15 18 14 18 14.658 19.426z"/><path style="opacity:.2" d="M18 7a8 8 0 0 1 8 8 8 8 0 0 1-8 8 8 8 0 0 1-8-8 8 8 0 0 1 8-8zm0 3a5 5 0 0 0-5 5 5 5 0 0 0 5 5 5 5 0 0 0 5-5 5 5 0 0 0-5-5z"/><path style="fill:#fff" d="M18 6a8 8 0 0 1 8 8 8 8 0 0 1-8 8 8 8 0 0 1-8-8 8 8 0 0 1 8-8zm0 3a5 5 0 0 0-5 5 5 5 0 0 0 5 5 5 5 0 0 0 5-5 5 5 0 0 0-5-5z"/><path style="opacity:.1;fill:#fff" d="M18.027 2C24.592 2 30 7.415 30 13.988c0 .169-.018.333-.025.5C29.707 8.144 24.424 3 18.027 3 11.614 3 6.32 8.17 6.078 14.537c-.009-.18-.023-.36-.023-.543v-.006C6.055 7.415 11.462 2 18.027 2zM6.41 17.813c.065.262.135.523.217.78l-2.97 2.98.058-.057c-.917.882-1.547 2.201-1.682 3.49-.009-.09-.022-.179-.027-.272-.076-1.498.617-3.169 1.709-4.218l-.059.056z"/></svg>
